icons/bus-wifi-line.svg

<svg xmlns="http://www.w3.org/2000/svg" width="24" height="24" fill="none"><g clip-path="url(#a)"><g><path fill="#121212" d="M12 3V5H5V12H21V20H20V21C20 21.2652 19.8946 21.5196 19.7071 21.7071C19.5196 21.8946 19.2652 22 19 22H18C17.7348 22 17.4804 21.8946 17.2929 21.7071C17.1054 21.5196 17 21.2652 17 21V20H7V21C7 21.2652 6.89464 21.5196 6.70711 21.7071C6.51957 21.8946 6.26522 22 6 22H5C4.73478 22 4.48043 21.8946 4.29289 21.7071C4.10536 21.5196 4 21.2652 4 21V20H3V12H2V8H3V5C3 4.46957 3.21071 3.96086 3.58579 3.58579C3.96086 3.21071 4.46957 3 5 3H12ZM19 14H5V18H19V14ZM10 15V17H6V15H10ZM18 15V17H14V15H18ZM18.5 1C19.6935 1 20.8381 1.47411 21.682 2.31802C22.5259 3.16193 23 4.30653 23 5.5C23 6.69347 22.5259 7.83807 21.682 8.68198C20.8381 9.52589 19.6935 10 18.5 10C17.3065 10 16.1619 9.52589 15.318 8.68198C14.4741 7.83807 14 6.69347 14 5.5C14 4.30653 14.4741 3.16193 15.318 2.31802C16.1619 1.47411 17.3065 1 18.5 1ZM18.5 6.167C18.009 6.167 17.56 6.344 17.211 6.637L17.086 6.752L18.5 8.167L19.913 6.751C19.7275 6.56548 19.5072 6.4184 19.2647 6.31819C19.0222 6.21798 18.7624 6.1666 18.5 6.167ZM18.5 3.5C17.344 3.49826 16.2289 3.92714 15.372 4.703L15.199 4.868L16.143 5.81C16.4521 5.49989 16.8195 5.25394 17.224 5.08627C17.6285 4.9186 18.0621 4.83253 18.5 4.833C19.3104 4.83177 20.0932 5.12699 20.701 5.663L20.857 5.81L21.8 4.867C21.3671 4.43296 20.8528 4.08875 20.2864 3.85415C19.7201 3.61956 19.113 3.4992 18.5 3.5Z"/></g></g><defs><clipPath id="a"><rect width="24" height="24" fill="white"/></clipPath></defs></svg>

<svg width="24" height="24" fill="none" xmlns="http://www.w3.org/2000/svg"><g clip-path="url(#a)"><path d="M12 3v2H5v7h16v8h-1v1a1 1 0 0 1-1 1h-1a1 1 0 0 1-1-1v-1H7v1a1 1 0 0 1-1 1H5a1 1 0 0 1-1-1v-1H3v-8H2V8h1V5a2 2 0 0 1 2-2h7Zm7 11H5v4h14v-4Zm-9 1v2H6v-2h4Zm8 0v2h-4v-2h4Zm.5-14a4.5 4.5 0 1 1 0 9 4.5 4.5 0 0 1 0-9Zm0 5.167c-.491 0-.94.177-1.289.47l-.125.115L18.5 8.167l1.413-1.416a1.993 1.993 0 0 0-1.413-.584Zm0-2.667a4.65 4.65 0 0 0-3.128 1.203l-.173.165.944.942a3.323 3.323 0 0 1 2.357-.977 3.32 3.32 0 0 1 2.201.83l.156.147.943-.943A4.652 4.652 0 0 0 18.5 3.5Z" /></g><defs><clipPath id="a"><path fill="#fff" d="M0 0h24v24H0z"/></clipPath></defs></svg>
